valentine-day-promo/public/LUT/W-9130-STD.cube
# Copyright: (C) Copyright 2010-2021 by IWLTBAP SAS
# Cannot be resold, shared or otherwise redistributed
# Website: https://luts.iwltbap.com
TITLE "IWLTBAP 9130 (Rec.709, sRGB, DCI-P3)"
LUT_3D_SIZE 33
0.000916 0.001160 0.000977
0.014404 0.000763 0.000885
0.030701 0.001465 0.000702
0.050171 0.004059 0.001007
0.069580 0.006439 0.001343
0.089325 0.009521 0.002106
0.107117 0.011963 0.003815
0.123962 0.014374 0.004883
0.140930 0.016663 0.006256
0.158142 0.018707 0.007629
0.173828 0.019714 0.009094
0.189453 0.020721 0.010376
0.205627 0.022186 0.011658
0.222504 0.023804 0.012909
0.239410 0.025543 0.013977
0.256500 0.026855 0.015198
0.274445 0.028656 0.016327
0.293549 0.031403 0.017242
0.312225 0.031525 0.018402
0.332397 0.033875 0.019501
0.354279 0.036499 0.020844
0.376923 0.039520 0.022369
0.399841 0.041901 0.024109
0.423035 0.044189 0.025879
0.447327 0.046600 0.027771
0.473267 0.049286 0.029755
0.499817 0.051819 0.031708
0.525818 0.054321 0.033569
0.552490 0.056641 0.035645
0.581726 0.059204 0.038330
0.612640 0.061768 0.041595
0.645233 0.064545 0.045197
0.677094 0.066803 0.048676
0.009338 0.020508 0.009430
0.017487 0.022095 0.005127
0.033844 0.019562 0.000580
0.052582 0.018646 0.000946
0.073914 0.021301 0.001312
0.093872 0.023834 0.001892
0.112427 0.026215 0.003448
0.129578 0.028717 0.004761
0.147491 0.030151 0.006256
0.165009 0.032257 0.007660
0.181885 0.033447 0.009064
0.198639 0.034729 0.010284
0.216003 0.035767 0.011597
0.233124 0.037048 0.012878
0.250244 0.038361 0.014130
0.268188 0.039673 0.015289
0.286774 0.041321 0.016388
0.305847 0.042053 0.017456
0.325806 0.042114 0.018677
0.347290 0.044586 0.020203
0.369873 0.047546 0.021790
0.393005 0.050415 0.023529
0.416321 0.052429 0.025269
0.440155 0.055481 0.027161
0.466400 0.056885 0.029175
0.492676 0.059998 0.031097
0.519653 0.061829 0.033020
0.546692 0.064911 0.035034
0.575348 0.067291 0.037201
0.605530 0.069733 0.040131
0.636749 0.071930 0.043365
0.670776 0.074615 0.047089
0.703583 0.076630 0.050598
0.020844 0.045807 0.024750
0.026123 0.048706 0.024963
0.039246 0.049316 0.011780
0.060730 0.041626 0.000916
0.078430 0.037292 0.001282
0.098114 0.038849 0.001709
0.117371 0.041321 0.003204
0.136139 0.043549 0.004700
0.154175 0.044708 0.006165
0.171631 0.045807 0.007599
0.189972 0.046844 0.009094
0.207977 0.048065 0.010406
0.225677 0.049500 0.011719
0.243683 0.050934 0.013092
0.261414 0.052368 0.014313
0.279633 0.054138 0.015411
0.298645 0.056030 0.016602
0.318695 0.057007 0.018036
0.339691 0.056885 0.019531
0.361511 0.058624 0.021118
0.383911 0.060516 0.022705
0.407532 0.062408 0.024475
0.432495 0.064209 0.026459
0.458862 0.065735 0.028534
0.485046 0.067566 0.030487
0.511505 0.072052 0.032349
0.539276 0.073517 0.034393
0.567322 0.076233 0.036469
0.597382 0.079254 0.038788
0.628662 0.082336 0.041565
0.662048 0.085388 0.044952
0.695374 0.087219 0.048523
0.727997 0.089172 0.051971
0.031738 0.069397 0.040741
0.035583 0.071686 0.041016
0.045013 0.073151 0.033508
0.068207 0.069824 0.001007
0.087921 0.060150 0.001282
0.102814 0.054626 0.001556
0.119965 0.054321 0.002869
0.140167 0.056763 0.004486
0.159119 0.058533 0.006012
0.177612 0.059601 0.007507
0.196320 0.060944 0.008942
0.215027 0.062500 0.010315
0.233582 0.064026 0.011627
0.252106 0.065826 0.013062
0.270599 0.067688 0.014465
0.289154 0.069489 0.015747
0.308472 0.071259 0.017120
0.329193 0.072113 0.018616
0.350861 0.071869 0.020203
0.373505 0.072906 0.021820
0.397400 0.075287 0.023621
0.422577 0.078033 0.025543
0.448120 0.080719 0.027527
0.474457 0.083191 0.029602
0.501038 0.085144 0.031494
0.528107 0.087769 0.033386
0.556976 0.087433 0.035645
0.587433 0.089447 0.037933
0.619263 0.093170 0.040344
0.651520 0.097107 0.042999
0.684753 0.101227 0.045929
0.717255 0.104645 0.048981
0.749298 0.105347 0.052399
0.042084 0.092529 0.056824
0.045135 0.094208 0.057068
0.051636 0.095947 0.051300
0.073608 0.093964 0.027832
0.097656 0.088043 0.001343
0.113922 0.079773 0.001740
0.128540 0.073486 0.002899
0.144379 0.071106 0.004242
0.162689 0.072205 0.005737
0.181549 0.073517 0.007233
0.200623 0.074890 0.008698
0.220245 0.076630 0.010284
0.239899 0.078339 0.011810
0.259155 0.080261 0.013336
0.277802 0.082275 0.014771
0.297272 0.084290 0.016205
0.317657 0.085968 0.017639
0.338867 0.087402 0.019196
0.361176 0.088013 0.020782
0.383911 0.089905 0.022461
0.408447 0.092590 0.024292
0.434174 0.096100 0.026276
0.460480 0.099060 0.028320
0.487122 0.101471 0.030365
0.514587 0.103302 0.032318
0.543945 0.106354 0.034454
0.574921 0.109131 0.036804
0.606537 0.113373 0.039215
0.639557 0.117981 0.041687
0.671844 0.122437 0.044098
0.704376 0.125366 0.046570
0.737274 0.127045 0.049103
0.769409 0.127655 0.052002
0.050262 0.111969 0.070526
0.053009 0.114075 0.071716
0.057953 0.116089 0.067810
0.076569 0.115173 0.052704
0.103516 0.112640 0.009705
0.123260 0.105438 0.002228
0.138916 0.097198 0.003448
0.153534 0.089691 0.004700
0.168457 0.087067 0.005951
0.184509 0.086365 0.007263
0.204315 0.088043 0.008850
0.224884 0.089996 0.010468
0.244995 0.092133 0.012085
0.264648 0.094299 0.013641
0.284241 0.096558 0.015137
0.304718 0.098969 0.016602
0.326172 0.100891 0.018188
0.348022 0.102844 0.019714
0.370453 0.104614 0.021332
0.393585 0.106781 0.023010
0.418549 0.110046 0.024902
0.444427 0.113800 0.026947
0.471222 0.117432 0.029022
0.498627 0.121246 0.031006
0.526611 0.124420 0.032959
0.556122 0.128754 0.035156
0.589752 0.133484 0.037750
0.622223 0.136810 0.040192
0.654816 0.140259 0.042694
0.688141 0.143890 0.045166
0.721100 0.146332 0.047638
0.754364 0.148590 0.050110
0.787262 0.150543 0.052368
0.058075 0.131531 0.084229
0.060516 0.133972 0.085724
0.064850 0.136475 0.084137
0.079620 0.136444 0.071594
0.106262 0.135193 0.051819
0.131226 0.132111 0.008087
0.149139 0.123444 0.004028
0.164398 0.113068 0.005371
0.179382 0.107574 0.006622
0.193390 0.104279 0.007843
0.208771 0.102722 0.009125
0.228027 0.103424 0.010651
0.248871 0.105682 0.012299
0.269318 0.108063 0.013885
0.289551 0.110474 0.015442
0.310486 0.113220 0.016937
0.332642 0.115845 0.018524
0.355408 0.118164 0.020172
0.378662 0.120331 0.021790
0.402313 0.123199 0.023560
0.427643 0.126587 0.025482
0.453735 0.130646 0.027496
0.480865 0.134857 0.029572
0.508942 0.139740 0.031616
0.537445 0.143799 0.033600
0.567719 0.148346 0.035919
0.601318 0.152557 0.038483
0.633301 0.156342 0.040924
0.665894 0.159912 0.043335
0.699524 0.163879 0.045868
0.733612 0.167694 0.048401
0.768188 0.171997 0.050873
0.801544 0.174774 0.053162
0.065735 0.151642 0.097900
0.068237 0.154144 0.098999
0.071930 0.156494 0.098480
0.082153 0.157562 0.088440
0.109650 0.157104 0.073578
0.135712 0.155640 0.051605
0.158600 0.150574 0.008453
0.175476 0.139648 0.006073
0.190887 0.130707 0.007385
0.204926 0.125183 0.008575
0.219727 0.122009 0.009796
0.235413 0.119507 0.011108
0.252625 0.119598 0.012482
0.273621 0.122070 0.014160
0.294342 0.124634 0.015656
0.315979 0.127625 0.017212
0.338684 0.130920 0.018829
0.362000 0.133545 0.020508
0.386017 0.136414 0.022186
0.410706 0.139496 0.024017
0.436371 0.143219 0.025970
0.463409 0.147858 0.028076
0.490601 0.152374 0.030151
0.518890 0.157440 0.032166
0.548096 0.162292 0.034241
0.579437 0.167053 0.036652
0.611908 0.171753 0.039093
0.643555 0.175842 0.041504
0.676147 0.179443 0.043976
0.710175 0.183472 0.046509
0.745728 0.187775 0.049133
0.781006 0.193024 0.051636
0.814240 0.197113 0.053894
0.072571 0.170624 0.109833
0.074951 0.172882 0.110535
0.078186 0.174835 0.110474
0.084961 0.177002 0.103668
0.111786 0.177460 0.090515
0.140320 0.176697 0.074982
0.166656 0.175598 0.050201
0.185638 0.167053 0.008026
0.201752 0.156250 0.008026
0.216888 0.148315 0.009369
0.231628 0.143036 0.010559
0.246979 0.139526 0.011841
0.263214 0.138062 0.013184
0.279724 0.137634 0.014496
0.298065 0.138977 0.015808
0.320953 0.141998 0.017456
0.344513 0.145752 0.019135
0.368378 0.148865 0.020844
0.392639 0.151978 0.022552
0.417755 0.155701 0.024414
0.444061 0.159698 0.026428
0.472321 0.164520 0.028625
0.500336 0.169525 0.030731
0.528595 0.174622 0.032715
0.558075 0.179901 0.034851
0.589569 0.184967 0.037262
0.621918 0.190094 0.039734
0.653381 0.194336 0.042114
0.685944 0.198364 0.044556
0.720184 0.202484 0.047119
0.755890 0.207214 0.049744
0.791107 0.212555 0.052185
0.825500 0.218353 0.054504
0.078613 0.188049 0.120819
0.080933 0.190338 0.121613
0.084015 0.192566 0.121826
0.090149 0.195557 0.118378
0.112732 0.196991 0.105927
0.144501 0.196686 0.092072
0.169983 0.197021 0.077545
0.196442 0.196625 0.054321
0.212494 0.186493 0.011414
0.228546 0.175110 0.010010
0.243958 0.167358 0.011353
0.258789 0.162262 0.012604
0.274811 0.159149 0.013916
0.291626 0.157166 0.015198
0.308655 0.156677 0.016449
0.327698 0.157806 0.017822
0.349609 0.160217 0.019409
0.373932 0.163757 0.021118
0.398682 0.167328 0.022827
0.423950 0.171417 0.024750
0.450653 0.176025 0.026825
0.478882 0.180817 0.028992
0.507965 0.186066 0.031097
0.537079 0.191376 0.033173
0.567749 0.196960 0.035461
0.599487 0.202484 0.037903
0.631409 0.207886 0.040314
0.663116 0.212646 0.042725
0.696075 0.217285 0.045197
0.730530 0.221771 0.047760
0.766022 0.226746 0.050354
0.801056 0.232422 0.052734
0.836121 0.238647 0.055542
0.084473 0.205963 0.132324
0.086609 0.208374 0.133331
0.089478 0.210938 0.133789
0.094574 0.214081 0.132477
0.111572 0.217346 0.122101
0.147186 0.216827 0.108063
0.173676 0.218628 0.097046
0.200226 0.219849 0.084229
0.223389 0.216339 0.062927
0.241089 0.204163 0.018372
0.256866 0.194855 0.012115
0.272125 0.188019 0.013428
0.287537 0.182281 0.014679
0.304138 0.178406 0.015930
0.321411 0.176422 0.017212
0.340118 0.176575 0.018585
0.359772 0.177429 0.019989
0.380341 0.179047 0.021454
0.404724 0.182556 0.023163
0.430756 0.186707 0.025116
0.456787 0.191620 0.027161
0.484467 0.196869 0.029266
0.513458 0.202026 0.031372
0.543396 0.208038 0.033508
0.575317 0.213928 0.035950
0.608124 0.219818 0.038422
0.640533 0.225677 0.040894
0.671875 0.230865 0.043243
0.705109 0.235992 0.045715
0.739716 0.241180 0.048309
0.775635 0.246216 0.050903
0.810883 0.252472 0.053284
0.846893 0.258545 0.059937
0.089905 0.224121 0.143951
0.091919 0.226685 0.145081
0.094879 0.229736 0.145905
0.099426 0.232819 0.145294
0.109344 0.236389 0.137543
0.147552 0.238312 0.124573
0.176971 0.238129 0.112610
0.203339 0.240295 0.103485
0.231293 0.240845 0.090851
0.251953 0.234528 0.071838
0.270569 0.223846 0.042145
0.284882 0.214081 0.014160
0.300598 0.206512 0.015411
0.317230 0.201294 0.016693
0.334290 0.197845 0.017975
0.352722 0.196838 0.019318
0.372925 0.197174 0.020721
0.393005 0.197968 0.022186
0.414703 0.199799 0.023804
0.438446 0.202850 0.025574
0.463959 0.207184 0.027557
0.490204 0.212585 0.029602
0.518707 0.217957 0.031647
0.549042 0.224426 0.033783
0.581635 0.230499 0.036255
0.615143 0.236847 0.038849
0.648499 0.243530 0.041382
0.680389 0.248962 0.043762
0.713654 0.254547 0.046234
0.748169 0.260284 0.048798
0.784332 0.265747 0.051361
0.820679 0.271698 0.053864
0.857269 0.277954 0.062653
0.095245 0.241699 0.154846
0.097290 0.244537 0.156097
0.100189 0.248138 0.157196
0.103973 0.251465 0.156708
0.111572 0.254700 0.151978
0.144348 0.258331 0.139801
0.180450 0.257935 0.127930
0.207703 0.260193 0.119049
0.234589 0.262085 0.110657
0.261658 0.263184 0.100708
0.280853 0.254669 0.083038
0.298798 0.245819 0.063599
0.314087 0.234924 0.029541
0.330597 0.226471 0.017426
0.348022 0.221893 0.018738
0.366272 0.219330 0.020111
0.386169 0.218811 0.021545
0.407257 0.219299 0.023041
0.428864 0.220581 0.024689
0.451599 0.222748 0.026459
0.474487 0.225616 0.028229
0.498932 0.230072 0.030090
0.525787 0.235107 0.031982
0.555878 0.241394 0.034149
0.588287 0.247681 0.036652
0.621765 0.254272 0.039215
0.655487 0.261414 0.041748
0.688660 0.267883 0.044250
0.722717 0.273621 0.046814
0.756989 0.279114 0.049286
0.793213 0.285095 0.051880
0.830017 0.290558 0.054352
0.866333 0.297638 0.065552
0.100739 0.260162 0.165741
0.102966 0.263275 0.167084
0.105865 0.266846 0.168182
0.109619 0.270325 0.168091
0.116577 0.273712 0.164856
0.141724 0.278870 0.155090
0.182861 0.280273 0.144043
0.213165 0.281219 0.134460
0.239624 0.284241 0.127899
0.267334 0.286438 0.120636
0.292847 0.287079 0.111725
0.310242 0.278442 0.096924
0.328735 0.268799 0.079987
0.345245 0.258087 0.053558
0.362549 0.249817 0.020172
0.381500 0.245850 0.020935
0.401001 0.243744 0.022369
0.422241 0.243286 0.023956
0.443848 0.244019 0.025604
0.466431 0.245483 0.027405
0.488953 0.247314 0.029144
0.512146 0.250671 0.030884
0.537109 0.254639 0.032654
0.566162 0.260162 0.034821
0.597107 0.265778 0.037170
0.628998 0.272003 0.039642
0.662201 0.279053 0.042114
0.696625 0.286255 0.044739
0.731750 0.292633 0.047333
0.766846 0.297821 0.049896
0.802368 0.303925 0.052368
0.839539 0.309601 0.058136
0.875916 0.317749 0.069275
0.106384 0.279724 0.176788
0.108765 0.283386 0.178314
0.111816 0.287384 0.179413
0.115631 0.291290 0.179565
0.121948 0.295166 0.177704
0.140564 0.300781 0.171600
0.182281 0.305298 0.161041
0.218719 0.305603 0.150452
0.246796 0.307617 0.143311
0.272369 0.310547 0.138062
0.299347 0.312408 0.131592
0.320190 0.310059 0.121307
0.341400 0.302216 0.109589
0.360260 0.292450 0.094818
0.378204 0.281769 0.075562
0.397522 0.275208 0.048218
0.417603 0.271332 0.024841
0.438477 0.269440 0.024963
0.459808 0.269073 0.026672
0.481628 0.269806 0.028351
0.503754 0.270935 0.030060
0.527161 0.273041 0.031769
0.552155 0.276764 0.033569
0.580505 0.281525 0.035736
0.609772 0.286102 0.037994
0.639343 0.291260 0.040253
0.670197 0.297028 0.042572
0.703796 0.304016 0.045105
0.740082 0.311188 0.047821
0.775604 0.317047 0.050385
0.811432 0.323029 0.052887
0.848511 0.329590 0.060944
0.885803 0.337738 0.075653
0.112396 0.301178 0.188385
0.114899 0.304993 0.189819
0.118103 0.309265 0.191162
0.122009 0.313202 0.191406
0.126953 0.316772 0.190491
0.140167 0.321442 0.186340
0.181122 0.328278 0.175873
0.223389 0.330963 0.166168
0.253113 0.332062 0.158752
0.278900 0.335480 0.154114
0.304840 0.338196 0.149170
0.331177 0.338654 0.142822
0.350922 0.333466 0.131500
0.373444 0.327087 0.121887
0.392670 0.316559 0.107941
0.412109 0.306183 0.091736
0.433838 0.301147 0.074463
0.455170 0.297668 0.045929
0.476074 0.295349 0.030212
0.497070 0.294800 0.029297
0.518677 0.295074 0.030945
0.541992 0.296600 0.032623
0.567413 0.299866 0.034485
0.595398 0.303864 0.036682
0.623749 0.307983 0.038879
0.652405 0.312469 0.041077
0.681824 0.317444 0.043304
0.713074 0.322998 0.045654
0.747620 0.329895 0.048218
0.782898 0.336395 0.050781
0.819550 0.342621 0.053284
0.856781 0.349640 0.062164
0.894958 0.359528 0.114716
0.118835 0.324127 0.200623
0.121521 0.327972 0.202118
0.124878 0.332214 0.203278
0.128998 0.336151 0.203400
0.133240 0.339417 0.202148
0.142487 0.342621 0.199005
0.176056 0.349152 0.189453
0.226593 0.354767 0.180878
0.259094 0.356750 0.173737
0.285309 0.360291 0.169312
0.311493 0.363800 0.165100
0.338806 0.365448 0.160248
0.364197 0.366119 0.154541
0.383240 0.359283 0.142944
0.406433 0.352448 0.133667
0.426361 0.342285 0.121155
0.447052 0.331970 0.106628
0.470276 0.327667 0.093201
0.492615 0.324982 0.077118
0.513062 0.322449 0.046692
0.534546 0.321289 0.039124
0.557648 0.321991 0.034027
0.583282 0.324371 0.035492
0.610657 0.327271 0.037689
0.638062 0.330505 0.039795
0.665741 0.334198 0.041931
0.694702 0.338623 0.044128
0.725098 0.344055 0.046417
0.758240 0.350433 0.048828
0.792938 0.356781 0.051331
0.828613 0.363220 0.054535
0.864380 0.370239 0.063171
0.902893 0.382446 0.135559
0.125549 0.347412 0.212952
0.128418 0.351318 0.214294
0.132141 0.355560 0.215363
0.136047 0.359192 0.215118
0.140381 0.362122 0.213440
0.144775 0.364380 0.210266
0.168945 0.369110 0.202850
0.227356 0.377075 0.194946
0.263794 0.380859 0.188263
0.291534 0.384979 0.183868
0.318390 0.389191 0.180267
0.345734 0.391663 0.176147
0.372894 0.394165 0.172272
0.397247 0.394623 0.166931
0.416168 0.385498 0.154327
0.440186 0.378723 0.145660
0.460968 0.368958 0.134186
0.482239 0.358154 0.120941
0.505859 0.354675 0.109833
0.528717 0.352386 0.097290
0.551300 0.350830 0.080627
0.573761 0.349304 0.046722
0.599518 0.350281 0.042358
0.626007 0.351959 0.038635
0.652374 0.353912 0.040710
0.679535 0.356812 0.042816
0.708252 0.360962 0.044983
0.738373 0.366211 0.047211
0.770416 0.371887 0.049591
0.804840 0.377777 0.052032
0.840149 0.384247 0.056519
0.876068 0.391541 0.064850
0.911835 0.406342 0.160645
0.132416 0.370270 0.225128
0.135315 0.374146 0.226105
0.139069 0.378082 0.226898
0.143036 0.381287 0.226257
0.147034 0.383759 0.224457
0.151215 0.385437 0.221283
0.163361 0.388428 0.216492
0.225220 0.398407 0.208801
0.266754 0.404083 0.202454
0.296844 0.408813 0.197754
0.324768 0.413513 0.194489
0.351807 0.416809 0.191254
0.378784 0.419983 0.187988
0.405670 0.423157 0.184906
0.430023 0.421844 0.178680
0.449585 0.411652 0.165833
0.474091 0.406433 0.158417
0.495300 0.396637 0.147614
0.516724 0.384430 0.134949
0.541595 0.381287 0.124847
0.566010 0.379730 0.113495
0.590210 0.379456 0.100159
0.616180 0.378479 0.077881
0.642059 0.377869 0.050293
0.667389 0.378998 0.041626
0.693451 0.381836 0.043671
0.721680 0.385559 0.045807
0.751526 0.389709 0.048065
0.783386 0.394775 0.050415
0.817535 0.400055 0.052734
0.852539 0.406158 0.062958
0.887726 0.417389 0.131714
0.920410 0.432587 0.200531
0.139282 0.392395 0.237091
0.142273 0.396118 0.238007
0.145752 0.399750 0.238708
0.149445 0.402405 0.237671
0.153320 0.404266 0.235535
0.157837 0.405975 0.232758
0.168732 0.408661 0.229004
0.221008 0.418365 0.222443
0.267090 0.426331 0.216675
0.301361 0.431610 0.211273
0.330444 0.436890 0.208038
0.357727 0.440948 0.205475
0.384583 0.444733 0.202759
0.411499 0.448578 0.200195
0.438812 0.452087 0.197784
0.463806 0.450653 0.191620
0.483887 0.440765 0.179291
0.508575 0.436523 0.172760
0.530151 0.426880 0.163055
0.553223 0.413605 0.150055
0.579926 0.411255 0.140381
0.605103 0.409790 0.130615
0.631531 0.408783 0.118652
0.658203 0.408051 0.103607
0.683624 0.407745 0.086243
0.709595 0.409332 0.072052
0.736816 0.411957 0.059967
0.765137 0.415039 0.057068
0.796021 0.419952 0.066559
0.829803 0.425934 0.096069
0.863892 0.433777 0.129181
0.897614 0.443756 0.175690
0.925323 0.463196 0.260773
0.146667 0.413666 0.249268
0.149506 0.416901 0.250061
0.153015 0.420319 0.250610
0.156616 0.422729 0.249451
0.160339 0.424316 0.247559
0.165131 0.426331 0.245270
0.174042 0.429382 0.241882
0.201050 0.435852 0.237915
0.266815 0.448029 0.230621
0.306030 0.454498 0.225098
0.336243 0.459808 0.221344
0.363495 0.464966 0.219452
0.390167 0.469391 0.217316
0.417572 0.473846 0.215240
0.445740 0.478241 0.213593
0.473267 0.481567 0.210938
0.497589 0.480377 0.204376
0.517914 0.473969 0.195343
0.542908 0.471680 0.191010
0.565735 0.462646 0.181671
0.591827 0.449951 0.168884
0.620331 0.444885 0.158630
0.646576 0.442841 0.150146
0.672882 0.441650 0.141632
0.698761 0.440277 0.131927
0.724792 0.440613 0.123810
0.752197 0.442688 0.118103
0.779419 0.445038 0.116302
0.808563 0.449463 0.124603
0.840454 0.455627 0.147675
0.872864 0.463501 0.177490
0.906006 0.472656 0.213989
0.929779 0.494293 0.310272
0.153717 0.434387 0.263000
0.156555 0.437500 0.263824
0.160004 0.440765 0.263977
0.163696 0.443268 0.262970
0.167999 0.445221 0.261078
0.173157 0.447540 0.257996
0.180115 0.450287 0.254791
0.199554 0.455780 0.252106
0.263367 0.469727 0.246185
0.307281 0.478516 0.241516
0.342773 0.483307 0.236145
0.369537 0.489197 0.234375
0.396667 0.494202 0.232788
0.423553 0.499237 0.231293
0.452087 0.504578 0.230255
0.481720 0.510071 0.229462
0.508972 0.514374 0.227386
0.531036 0.514923 0.222168
0.551239 0.510101 0.214264
0.577423 0.508270 0.210602
0.603546 0.500366 0.202026
0.630798 0.488098 0.190094
0.659332 0.479828 0.180237
0.686859 0.477112 0.173828
0.712891 0.476135 0.169006
0.738892 0.475739 0.165375
0.765533 0.476288 0.164154
0.792999 0.478333 0.167511
0.821777 0.481842 0.176483
0.851807 0.487030 0.193054
0.882324 0.494019 0.217224
0.913910 0.502411 0.249512
0.934021 0.525330 0.352600
0.161255 0.455902 0.277588
0.164154 0.458801 0.278229
0.167603 0.461975 0.277954
0.171234 0.464325 0.276550
0.175354 0.466614 0.274567
0.180328 0.469177 0.271637
0.186951 0.472443 0.268860
0.201691 0.477753 0.267212
0.250153 0.489868 0.263397
0.306793 0.502106 0.258453
0.346985 0.508118 0.253448
0.376953 0.513397 0.249878
0.403412 0.519623 0.248779
0.430603 0.525574 0.247864
0.458069 0.531586 0.247559
0.487427 0.537872 0.247498
0.517059 0.544617 0.247559
0.543304 0.551086 0.247131
0.565216 0.551880 0.242218
0.586243 0.548187 0.234131
0.615356 0.547882 0.231537
0.642517 0.541016 0.225037
0.669403 0.527130 0.214142
0.698425 0.514160 0.204163
0.725800 0.511139 0.200470
0.751068 0.510162 0.199066
0.777191 0.510162 0.200195
0.804443 0.511658 0.205261
0.833435 0.514496 0.215088
0.862976 0.518188 0.230621
0.892120 0.523895 0.252686
0.922028 0.531555 0.283173
0.938171 0.554749 0.389801
0.169403 0.477386 0.292480
0.172363 0.480164 0.292725
0.175781 0.483093 0.292114
0.179199 0.485260 0.290710
0.183167 0.488007 0.288483
0.187469 0.490570 0.285828
0.193665 0.494110 0.283600
0.202423 0.498169 0.282379
0.234070 0.507294 0.280060
0.304230 0.525024 0.275208
0.349152 0.533447 0.271057
0.383118 0.539520 0.267426
0.411072 0.544983 0.265106
0.437469 0.551666 0.264740
0.464691 0.558685 0.265015
0.493073 0.565796 0.265656
0.523651 0.573853 0.266479
0.553528 0.582855 0.268311
0.579895 0.589783 0.268341
0.601501 0.591064 0.263153
0.623444 0.589020 0.255951
0.652496 0.588928 0.255157
0.679321 0.582489 0.250641
0.706635 0.566986 0.241241
0.735626 0.550720 0.232208
0.761932 0.545135 0.230164
0.787567 0.543365 0.232117
0.814423 0.544250 0.238373
0.842529 0.546722 0.248993
0.872101 0.549530 0.264893
0.901031 0.553894 0.286469
0.929535 0.560608 0.315735
0.941956 0.582336 0.421967
0.177979 0.498840 0.307037
0.180969 0.501801 0.307068
0.184296 0.504608 0.306396
0.187622 0.506836 0.305023
0.191620 0.509796 0.302612
0.195770 0.512512 0.299805
0.203186 0.516571 0.298004
0.211273 0.520569 0.296997
0.232513 0.527313 0.295563
0.301544 0.546051 0.291138
0.350647 0.558289 0.288330
0.387665 0.565491 0.285339
0.418518 0.571106 0.282410
0.445190 0.577484 0.281647
0.471710 0.585236 0.282562
0.499146 0.592651 0.283691
0.529114 0.601471 0.285248
0.560913 0.611145 0.287781
0.590424 0.620941 0.290314
0.617004 0.628815 0.290985
0.638336 0.631409 0.286591
0.659637 0.630249 0.280273
0.688141 0.630096 0.281311
0.713806 0.623199 0.278656
0.740845 0.607178 0.271271
0.770142 0.589905 0.265106
0.796722 0.580414 0.264923
0.823517 0.577942 0.270691
0.851044 0.579224 0.281830
0.879639 0.581512 0.298035
0.908752 0.585052 0.320343
0.936554 0.590363 0.348846
0.945862 0.609344 0.453857
0.187134 0.520905 0.321991
0.190155 0.523987 0.321777
0.193573 0.527191 0.321198
0.196899 0.529633 0.319275
0.200928 0.532745 0.317017
0.206696 0.536285 0.314697
0.213287 0.540344 0.313446
0.223816 0.544983 0.313019
0.240326 0.550903 0.312042
0.289062 0.564423 0.308289
0.351715 0.581787 0.305145
0.392792 0.591095 0.303040
0.426331 0.597382 0.300537
0.454834 0.603577 0.299469
0.480865 0.611755 0.300537
0.507568 0.620178 0.302551
0.535034 0.628601 0.304688
0.566193 0.638672 0.307983
0.597595 0.649933 0.311523
0.627869 0.660919 0.315247
0.654083 0.670074 0.317352
0.675903 0.674103 0.314392
0.695190 0.672577 0.308441
0.722076 0.671997 0.311066
0.746979 0.665344 0.310791
0.773132 0.650024 0.306519
0.802582 0.633087 0.304413
0.830505 0.618500 0.305725
0.858307 0.614624 0.315704
0.885895 0.613586 0.330597
0.914124 0.616364 0.352997
0.941711 0.621002 0.382019
0.949524 0.636139 0.483307
0.197296 0.544342 0.337891
0.200378 0.547516 0.337830
0.203857 0.550781 0.336792
0.207336 0.553589 0.334595
0.211853 0.557129 0.332581
0.217224 0.560852 0.330811
0.224762 0.565094 0.330383
0.239655 0.571106 0.329651
0.253052 0.576599 0.329224
0.280579 0.584198 0.326904
0.349915 0.603607 0.322906
0.398346 0.615692 0.321106
0.434723 0.623505 0.319458
0.464600 0.629944 0.318542
0.491302 0.637604 0.319519
0.517670 0.646790 0.321960
0.544525 0.656189 0.325104
0.572327 0.666321 0.329163
0.604126 0.678558 0.333893
0.636139 0.690308 0.338470
0.665985 0.701538 0.343109
0.693695 0.711823 0.347260
0.714447 0.716736 0.346130
