valentine-day-promo/public/LUT/W-9130-STD.cube
# Copyright: (C) Copyright 2010-2021 by IWLTBAP SAS
# Cannot be resold, shared or otherwise redistributed
# Website: https://luts.iwltbap.com
TITLE "IWLTBAP 9130 (Rec.709, sRGB, DCI-P3)"
LUT_3D_SIZE 9
0.000916 0.001160 0.000977
0.069580 0.006439 0.001343
0.140930 0.016663 0.006256
0.205627 0.022186 0.011658
0.274445 0.028656 0.016327
0.354279 0.036499 0.020844
0.447327 0.046600 0.027771
0.552490 0.056641 0.035645
0.677094 0.066803 0.048676
0.042084 0.092529 0.056824
0.097656 0.088043 0.001343
0.162689 0.072205 0.005737
0.239899 0.078339 0.011810
0.317657 0.085968 0.017639
0.408447 0.092590 0.024292
0.514587 0.103302 0.032318
0.639557 0.117981 0.041687
0.769409 0.127655 0.052002
0.072571 0.170624 0.109833
0.111786 0.177460 0.090515
0.201752 0.156250 0.008026
0.263214 0.138062 0.013184
0.344513 0.145752 0.019135
0.444061 0.159698 0.026428
0.558075 0.179901 0.034851
0.685944 0.198364 0.044556
0.825500 0.218353 0.054504
0.095245 0.241699 0.154846
0.111572 0.254700 0.151978
0.234589 0.262085 0.110657
0.314087 0.234924 0.029541
0.386169 0.218811 0.021545
0.474487 0.225616 0.028229
0.588287 0.247681 0.036652
0.722717 0.273621 0.046814
0.866333 0.297638 0.065552
0.118835 0.324127 0.200623
0.133240 0.339417 0.202148
0.259094 0.356750 0.173737
0.364197 0.366119 0.154541
0.447052 0.331970 0.106628
0.534546 0.321289 0.039124
0.638062 0.330505 0.039795
0.758240 0.350433 0.048828
0.902893 0.382446 0.135559
0.146667 0.413666 0.249268
0.160339 0.424316 0.247559
0.266815 0.448029 0.230621
0.390167 0.469391 0.217316
0.497589 0.480377 0.204376
0.591827 0.449951 0.168884
0.698761 0.440277 0.131927
0.808563 0.449463 0.124603
0.929779 0.494293 0.310272
0.177979 0.498840 0.307037
0.191620 0.509796 0.302612
0.232513 0.527313 0.295563
0.418518 0.571106 0.282410
0.529114 0.601471 0.285248
0.638336 0.631409 0.286591
0.740845 0.607178 0.271271
0.851044 0.579224 0.281830
0.945862 0.609344 0.453857
0.222412 0.596283 0.374878
0.238770 0.609467 0.370575
0.287933 0.631409 0.367249
0.451141 0.675446 0.364532
0.568878 0.710083 0.371155
0.683716 0.755859 0.393341
0.788361 0.796906 0.418976
0.868347 0.771698 0.438324
0.961182 0.731567 0.569946
0.300903 0.714478 0.491547
0.328735 0.731293 0.494629
0.388123 0.755341 0.485413
0.499817 0.781677 0.484039
0.622925 0.813324 0.479309
0.729248 0.849426 0.491302
0.835663 0.889557 0.529877
0.912231 0.907135 0.582428
0.974762 0.880310 0.692322
0.026611 0.030823 0.076874
0.090057 0.005463 0.077393
0.150208 0.010834 0.069702
0.227997 0.017761 0.075500
0.305267 0.024567 0.079987
0.393097 0.032288 0.080963
0.496063 0.040894 0.085724
0.616119 0.051178 0.091949
0.743317 0.062103 0.101227
0.049683 0.095978 0.108643
0.106293 0.110229 0.112762
0.187897 0.076263 0.036621
0.250336 0.072052 0.012756
0.336090 0.083221 0.019043
0.432739 0.096863 0.026154
0.540497 0.116272 0.034058
0.667694 0.131958 0.043732
0.796173 0.138092 0.054169
0.075684 0.172791 0.149017
0.107178 0.195251 0.151306
0.221436 0.179535 0.080566
0.280823 0.150208 0.014465
0.354004 0.156616 0.019714
0.454285 0.174561 0.027100
0.568390 0.194702 0.035553
0.700012 0.217712 0.045502
0.841797 0.235138 0.056000
0.097626 0.247559 0.189789
0.117096 0.272308 0.203918
0.244354 0.281982 0.145447
0.328186 0.252350 0.086548
0.399292 0.230682 0.022339
0.488129 0.240204 0.029175
0.600342 0.261169 0.037476
0.733398 0.287262 0.047485
0.880859 0.312225 0.088165
0.122253 0.337067 0.238556
0.135864 0.351898 0.246552
0.263245 0.372559 0.194855
0.374176 0.380402 0.171936
0.457977 0.341309 0.124146
0.543884 0.329865 0.062225
0.651581 0.339661 0.040802
0.771637 0.360138 0.049805
0.914276 0.398743 0.174896
0.149475 0.422394 0.274963
0.163300 0.433136 0.275787
0.277222 0.459747 0.244141
0.400146 0.479034 0.228485
0.507324 0.485931 0.212433
0.604309 0.453308 0.176666
0.709076 0.447571 0.149078
0.821686 0.459076 0.157623
0.933319 0.514099 0.363800
0.180176 0.503754 0.323883
0.194366 0.515930 0.322327
0.235962 0.536652 0.313995
0.429688 0.580597 0.292267
0.541199 0.611084 0.295532
0.647766 0.640259 0.296692
0.752289 0.609833 0.279999
0.861542 0.586090 0.297333
0.948212 0.618561 0.481018
0.224152 0.599335 0.389038
0.243073 0.615082 0.387451
0.286774 0.640106 0.385345
0.462891 0.685242 0.377625
0.579865 0.718750 0.382355
0.692413 0.762054 0.402222
0.793732 0.800110 0.425812
0.874847 0.770386 0.445221
0.962372 0.736145 0.586151
0.302338 0.715637 0.506012
0.337036 0.738464 0.520020
0.397583 0.765656 0.526611
0.494537 0.791595 0.516144
0.629822 0.824615 0.500336
0.742493 0.859680 0.505524
0.847656 0.898499 0.545074
0.919281 0.911499 0.597076
0.979187 0.884003 0.715881
0.049744 0.063934 0.154083
0.105988 0.061371 0.181183
0.180786 0.013824 0.150024
0.231232 0.018127 0.135559
0.309052 0.025024 0.138550
0.401855 0.033264 0.145142
0.503174 0.042206 0.160492
0.620789 0.052917 0.179810
0.746460 0.064270 0.198700
0.062927 0.114990 0.177673
0.101044 0.134033 0.205292
0.216095 0.113007 0.189484
0.277740 0.059601 0.150055
0.341400 0.050537 0.135223
0.435547 0.068115 0.140137
0.543610 0.086060 0.154480
0.666107 0.087708 0.167358
0.799103 0.110382 0.189575
0.081635 0.182434 0.208679
0.102295 0.203735 0.226685
0.227081 0.228882 0.218872
0.311249 0.196259 0.184265
0.388458 0.190887 0.164398
0.473816 0.195465 0.154053
0.578674 0.205994 0.153809
0.709290 0.223969 0.164459
0.851410 0.255646 0.200195
0.101654 0.259949 0.245544
0.115356 0.278870 0.258972
0.222534 0.316345 0.236206
0.351898 0.303497 0.198334
0.428833 0.271484 0.166840
0.516266 0.274567 0.147949
0.621704 0.289581 0.135590
0.741150 0.308228 0.135712
0.881409 0.345093 0.197968
0.120728 0.332397 0.278687
0.133606 0.352020 0.297455
0.224213 0.404236 0.276123
0.377014 0.420929 0.247803
0.474121 0.390686 0.195251
0.560608 0.362579 0.164307
0.669495 0.368561 0.132690
0.785736 0.388824 0.108551
0.915894 0.424927 0.219543
0.145050 0.415009 0.320129
0.158295 0.432892 0.338287
0.227844 0.483643 0.329681
0.392914 0.511292 0.288361
0.512726 0.531769 0.264862
0.606476 0.500702 0.224945
0.713715 0.476562 0.199036
0.830078 0.487488 0.214233
0.936432 0.535126 0.393280
0.177673 0.501526 0.373047
0.193542 0.518066 0.385529
0.229553 0.548737 0.392639
0.413818 0.598816 0.337799
0.528351 0.626526 0.323730
0.651031 0.661316 0.325165
0.750916 0.640289 0.309570
0.865601 0.603699 0.322754
0.949860 0.630768 0.498383
0.228973 0.608124 0.432800
0.245239 0.623596 0.442139
0.268219 0.640533 0.450836
0.448608 0.698822 0.422638
0.579926 0.729950 0.403442
0.695038 0.770844 0.418671
0.801514 0.809418 0.441315
0.882355 0.779022 0.462158
0.963959 0.745575 0.608185
0.306610 0.719818 0.528931
0.345337 0.743988 0.547577
0.401093 0.766846 0.566620
0.464783 0.790222 0.570374
0.630310 0.831177 0.534424
0.751312 0.868591 0.524231
0.855927 0.905426 0.559418
0.925018 0.916138 0.611359
0.980560 0.887878 0.737732
0.066681 0.095337 0.230316
0.102570 0.106476 0.265289
0.206787 0.076660 0.246246
0.267639 0.022644 0.217743
0.328827 0.028198 0.205566
0.405792 0.034943 0.203522
0.510773 0.044312 0.221649
0.626068 0.054840 0.247498
0.752991 0.066376 0.276703
0.075989 0.141785 0.251526
0.097412 0.161163 0.281586
0.226074 0.154968 0.292694
0.316895 0.128906 0.256470
0.381836 0.094788 0.228424
0.456696 0.084625 0.220062
0.550629 0.092133 0.233978
0.670074 0.080444 0.257904
0.799286 0.090698 0.290100
0.083527 0.194641 0.266968
0.098724 0.215118 0.290009
0.211945 0.248444 0.324677
0.335266 0.229462 0.297668
0.413361 0.213531 0.267273
0.496246 0.216003 0.258270
0.595245 0.223053 0.264679
0.711304 0.233734 0.279938
0.847870 0.260956 0.309692
0.104401 0.266785 0.303528
0.119507 0.294342 0.328583
0.207123 0.332886 0.345947
0.349121 0.350555 0.320251
0.447144 0.318848 0.294098
0.535950 0.320404 0.286102
0.643036 0.331604 0.289795
0.759277 0.346252 0.300201
0.886719 0.371185 0.331390
0.127655 0.358368 0.351044
0.139954 0.373779 0.365570
0.208466 0.409882 0.371033
0.355225 0.451019 0.345093
0.487518 0.441620 0.311249
0.578400 0.406219 0.297424
0.686523 0.413422 0.294098
0.802246 0.433716 0.303986
0.921051 0.463318 0.351990
0.149841 0.429657 0.381378
0.161896 0.444244 0.399323
0.215454 0.482361 0.408234
0.361633 0.534485 0.379242
0.500916 0.559509 0.374969
0.616394 0.551758 0.333618
0.725891 0.510284 0.316772
0.839020 0.519379 0.331329
0.938934 0.555389 0.435547
0.177643 0.503693 0.423859
0.189941 0.518921 0.442169
0.218933 0.542145 0.452118
0.362396 0.616058 0.430145
0.511230 0.643036 0.423492
0.654297 0.692963 0.417786
0.753693 0.680786 0.378845
0.864746 0.627838 0.380280
0.952240 0.646301 0.527496
0.215210 0.586182 0.471008
0.229706 0.603180 0.488464
0.248505 0.619507 0.505554
0.378387 0.701813 0.519409
0.544678 0.739594 0.499695
0.677094 0.778564 0.483582
0.803406 0.822601 0.480042
0.878754 0.802734 0.488464
0.965851 0.762299 0.622467
0.294891 0.704773 0.570221
0.311646 0.719727 0.592804
0.335785 0.735199 0.614899
0.435669 0.777924 0.633392
0.542297 0.816742 0.610443
0.708130 0.861084 0.594879
0.838196 0.905640 0.596954
0.929657 0.927124 0.645935
0.981506 0.896240 0.746918
0.077972 0.122711 0.299133
0.101746 0.132599 0.323792
0.209045 0.129761 0.350128
0.289856 0.099579 0.302765
0.357544 0.031616 0.277191
0.432465 0.037842 0.273804
0.518219 0.045380 0.283356
0.633057 0.056152 0.313782
0.758942 0.068237 0.348145
0.084778 0.166168 0.321014
0.100555 0.189148 0.357422
0.217560 0.204346 0.402130
0.334686 0.173096 0.347412
0.416382 0.146179 0.316589
0.488251 0.113678 0.304382
0.574738 0.100037 0.313812
0.676117 0.061432 0.337036
0.807465 0.091583 0.370422
0.092743 0.220093 0.339539
0.106628 0.240601 0.367584
0.207184 0.280121 0.419006
0.354828 0.270630 0.413605
0.446075 0.247711 0.368652
0.523712 0.232361 0.349915
0.618805 0.235199 0.356018
0.727112 0.244202 0.372375
0.849976 0.262451 0.398315
0.100372 0.275299 0.356873
0.113861 0.297638 0.381226
0.189301 0.337830 0.418091
0.337616 0.378540 0.451874
0.463806 0.351898 0.421143
0.552460 0.342407 0.400604
0.657318 0.348480 0.403809
0.769806 0.360626 0.416687
0.892456 0.380798 0.441132
0.126709 0.359528 0.403961
0.144379 0.388733 0.431824
0.177979 0.423157 0.459778
0.336639 0.473694 0.472595
0.488953 0.489136 0.452881
0.586670 0.446106 0.425354
0.693542 0.452515 0.422882
0.806763 0.467590 0.435547
0.925018 0.490997 0.472198
0.161377 0.459900 0.462646
0.173645 0.474182 0.481873
0.195770 0.492615 0.484589
0.341492 0.542816 0.486847
0.490387 0.580902 0.486633
0.619629 0.589600 0.453644
0.728333 0.540649 0.436279
0.839722 0.550537 0.451599
0.943268 0.578766 0.513550
0.189972 0.528717 0.494659
0.202423 0.543427 0.514435
0.219421 0.556671 0.517090
0.343597 0.606659 0.522491
0.491333 0.655823 0.522339
0.635620 0.697388 0.527588
0.754730 0.710632 0.490662
0.864136 0.651581 0.482880
0.954437 0.655762 0.578522
0.226349 0.602509 0.533966
0.239594 0.617615 0.554474
0.255219 0.631470 0.573425
0.340424 0.679077 0.585938
0.493073 0.738953 0.579254
0.652313 0.777435 0.576599
0.790558 0.828033 0.581757
0.875671 0.821136 0.569580
0.968262 0.775024 0.659729
0.281586 0.686981 0.594330
0.305023 0.713287 0.636078
0.321930 0.731628 0.668304
0.393188 0.758850 0.679077
0.520935 0.806335 0.677155
0.668976 0.856110 0.656281
0.816284 0.901794 0.669891
0.929840 0.937164 0.716125
0.980255 0.903931 0.786163
0.086365 0.148132 0.366852
0.103210 0.160370 0.392090
0.197968 0.179779 0.451904
0.304352 0.156830 0.412231
0.383881 0.120300 0.363068
0.460266 0.056244 0.345673
0.544891 0.048981 0.357819
0.648132 0.059113 0.384216
0.767822 0.070862 0.419678
0.093048 0.190765 0.391876
0.107422 0.215515 0.431702
0.206512 0.239807 0.476196
0.351288 0.221588 0.466339
0.440460 0.190308 0.409668
0.522400 0.166199 0.394775
0.606964 0.131195 0.400970
0.704742 0.095795 0.421661
0.824280 0.120758 0.449738
0.101440 0.244720 0.415680
0.115204 0.265564 0.445404
0.192993 0.303711 0.494049
0.347595 0.316559 0.525726
0.471130 0.285522 0.471161
0.554810 0.266022 0.446716
0.648376 0.253082 0.447632
0.751495 0.261322 0.463531
0.868011 0.282837 0.486938
0.109497 0.298889 0.431915
0.123474 0.322266 0.455688
0.186188 0.359894 0.496582
0.329132 0.403534 0.540497
0.486725 0.391296 0.544312
0.580261 0.368011 0.507141
0.678741 0.359955 0.498840
0.785767 0.368378 0.509766
0.899445 0.387299 0.527069
0.119812 0.361572 0.450439
0.133789 0.382935 0.471405
0.164276 0.410767 0.499390
0.309265 0.469360 0.541626
0.476074 0.498932 0.584076
0.594879 0.472473 0.554443
0.702209 0.465973 0.543854
0.812561 0.475250 0.551300
0.926971 0.494263 0.574310
0.154480 0.448761 0.501526
0.168976 0.468903 0.522736
0.195984 0.503510 0.552948
0.302704 0.554382 0.585327
0.474884 0.583923 0.602203
0.620239 0.614624 0.585632
0.729431 0.564941 0.559845
0.837067 0.572815 0.568573
0.943756 0.594208 0.599854
0.208130 0.556702 0.574860
0.217529 0.565155 0.590027
0.233032 0.579559 0.597565
0.300232 0.607300 0.598541
0.472839 0.647156 0.617065
0.622833 0.696198 0.621033
0.749023 0.729034 0.601105
0.860840 0.673035 0.589172
0.957764 0.667053 0.637329
0.246643 0.628510 0.612976
0.257690 0.640167 0.632080
0.269501 0.650452 0.646515
0.299469 0.673004 0.646912
0.470673 0.724548 0.659332
0.631561 0.778625 0.650238
0.770386 0.821838 0.666718
0.869171 0.833038 0.653656
0.970978 0.785187 0.710114
0.290649 0.697754 0.657471
0.298248 0.708282 0.681152
0.303864 0.716797 0.703217
0.330994 0.736877 0.720978
0.502655 0.792725 0.731842
0.648438 0.852020 0.703400
0.800903 0.897675 0.731354
0.923279 0.939423 0.780914
0.978821 0.911194 0.822632
0.094513 0.176819 0.440796
0.107574 0.188446 0.462891
0.190125 0.212189 0.515808
0.315887 0.202484 0.520569
0.403381 0.186218 0.486481
0.491852 0.137787 0.431885
0.578369 0.064758 0.439087
0.673523 0.062927 0.461212
0.787384 0.073944 0.495270
0.101288 0.217041 0.463989
0.115479 0.241730 0.503143
0.195312 0.262177 0.539062
0.345886 0.260590 0.571350
0.451843 0.242981 0.529755
0.547760 0.203247 0.479462
0.639374 0.184631 0.488739
0.732452 0.153534 0.502808
0.844330 0.168091 0.528717
0.109955 0.268066 0.487091
0.123108 0.288116 0.514069
0.171722 0.320068 0.557861
0.333527 0.348907 0.605682
0.491150 0.333710 0.599060
0.582123 0.298676 0.547089
0.679840 0.288788 0.550629
0.773499 0.283173 0.556702
0.882416 0.303925 0.576752
0.118683 0.321625 0.503296
0.132416 0.343811 0.528534
0.164429 0.368317 0.559906
0.309814 0.415466 0.616638
0.468658 0.416718 0.646423
0.599152 0.389313 0.603851
0.699707 0.379242 0.597473
0.798279 0.379181 0.601685
0.906982 0.400299 0.618744
0.128418 0.377563 0.515564
0.141632 0.395111 0.537750
0.165924 0.419525 0.567017
0.294037 0.467682 0.614441
0.443665 0.498169 0.655243
0.604431 0.490021 0.656586
0.713806 0.469543 0.637451
0.817780 0.473602 0.638794
0.924591 0.495850 0.660309
0.141998 0.432800 0.534424
0.155548 0.451965 0.553955
0.174927 0.474518 0.578308
0.255981 0.515411 0.612152
0.421753 0.564331 0.656799
0.592316 0.602203 0.688507
0.723450 0.582214 0.669006
0.831665 0.572906 0.668976
0.937958 0.592896 0.698944
0.185974 0.521973 0.589630
0.190460 0.526062 0.599731
0.216156 0.559814 0.629791
0.242554 0.587555 0.654449
0.434753 0.654510 0.701630
0.604156 0.688660 0.711823
0.746918 0.736145 0.705261
0.850891 0.693085 0.694824
0.948395 0.679230 0.720306
0.255157 0.639709 0.679596
0.257904 0.642761 0.689697
0.265839 0.651611 0.701202
0.283173 0.666321 0.708038
0.424652 0.712189 0.724274
0.588837 0.761169 0.727936
0.751862 0.814819 0.743011
0.860413 0.840424 0.743256
0.968201 0.792267 0.766968
0.275635 0.695892 0.717010
0.254730 0.694794 0.731293
0.235992 0.691498 0.740936
0.251038 0.700409 0.745880
0.413361 0.762146 0.770142
0.601746 0.827728 0.771210
0.781281 0.891754 0.789703
0.905334 0.931396 0.841217
0.972290 0.916077 0.867615
0.102753 0.204376 0.511261
0.114044 0.214813 0.531281
0.186859 0.234863 0.569824
0.306732 0.243927 0.612732
0.426147 0.233215 0.589966
0.515259 0.197540 0.543976
0.620453 0.149200 0.526215
0.711609 0.092407 0.543854
0.812195 0.083862 0.573975
0.109009 0.241852 0.533295
0.122345 0.264099 0.569916
0.181122 0.280670 0.599335
0.322113 0.296906 0.649902
0.467102 0.282166 0.630188
0.561371 0.253723 0.590515
0.668243 0.225922 0.582306
0.759338 0.214569 0.596802
0.858459 0.223236 0.617737
0.116852 0.286865 0.551971
0.129974 0.306610 0.579681
0.154907 0.332916 0.617889
0.311890 0.364319 0.667389
0.485535 0.340851 0.682556
0.585266 0.332184 0.647797
0.698273 0.312988 0.636932
0.789673 0.312073 0.647064
0.890167 0.327911 0.662354
0.126617 0.339294 0.569061
0.140625 0.360260 0.595856
0.162811 0.379547 0.623779
0.281219 0.422089 0.676117
0.442322 0.432220 0.716583
0.612213 0.414642 0.705475
0.713196 0.397095 0.681946
0.810822 0.399994 0.690887
0.908386 0.419769 0.705719
0.137177 0.387360 0.581512
0.151031 0.407623 0.606049
0.170197 0.426910 0.631287
0.264252 0.464233 0.671509
0.417206 0.496857 0.719727
0.571808 0.498169 0.745819
0.720551 0.478577 0.719788
0.822998 0.483307 0.726257
0.920441 0.503998 0.742004
0.151794 0.442291 0.596344
0.164215 0.458221 0.617371
0.180176 0.475281 0.636475
0.222198 0.500366 0.664429
0.393494 0.550110 0.714813
0.553864 0.581696 0.753296
0.722595 0.588348 0.760620
0.830048 0.568146 0.754852
0.929810 0.587250 0.772522
0.168640 0.494873 0.614502
0.178131 0.508423 0.631104
0.190613 0.525055 0.646729
0.206909 0.543671 0.664948
0.353363 0.602356 0.708984
0.521606 0.643707 0.752106
0.702942 0.698547 0.783203
0.835754 0.695129 0.789093
0.937103 0.675507 0.799805
0.209473 0.587463 0.671509
0.204742 0.582764 0.674438
0.210266 0.597748 0.690918
0.211456 0.609467 0.706299
0.298401 0.653442 0.736237
0.524017 0.726349 0.790314
0.718658 0.796387 0.817841
0.852234 0.841583 0.832489
0.955597 0.799377 0.838043
0.181000 0.643738 0.723633
0.154877 0.631897 0.724365
0.150543 0.628815 0.728149
0.155151 0.637360 0.737274
0.165649 0.652283 0.747284
0.505768 0.784637 0.827728
0.718597 0.867584 0.839661
0.888428 0.924225 0.890503
0.962616 0.918640 0.911926
0.109161 0.226837 0.575867
0.120605 0.239044 0.598694
0.178619 0.256958 0.630554
0.287811 0.280304 0.685364
0.427551 0.259521 0.674225
0.538025 0.256287 0.657684
0.645294 0.213867 0.631531
0.752655 0.189453 0.644104
0.846344 0.195648 0.666656
0.116913 0.263977 0.602142
0.131073 0.285889 0.639008
0.168579 0.299347 0.663544
0.304810 0.321503 0.709045
0.464966 0.297302 0.716339
0.575867 0.303253 0.702576
0.683350 0.273071 0.678955
0.785553 0.265656 0.689362
0.881073 0.283447 0.711975
0.125427 0.304565 0.619843
0.139557 0.326752 0.650909
0.160217 0.349640 0.683899
0.278412 0.376404 0.723999
0.441254 0.364777 0.765289
0.605011 0.352203 0.744354
0.707214 0.339996 0.727264
0.811157 0.337921 0.733032
0.905212 0.361145 0.753815
0.136200 0.353760 0.636993
0.149689 0.372864 0.663116
0.167023 0.388977 0.686951
0.235626 0.418518 0.724243
0.404175 0.437408 0.769928
0.588562 0.406525 0.790436
0.721558 0.405273 0.767059
0.832489 0.409790 0.775055
0.920868 0.437775 0.792816
0.146942 0.398071 0.647400
0.159363 0.416199 0.672089
0.174652 0.431427 0.693420
0.209503 0.451813 0.718231
0.371063 0.491699 0.769714
0.533020 0.499908 0.811249
0.736053 0.482483 0.820221
0.840851 0.486115 0.809631
0.931427 0.514679 0.826111
0.159149 0.443848 0.656494
0.169098 0.459076 0.677246
0.180847 0.472260 0.694702
0.196869 0.487183 0.714691
0.344208 0.533356 0.760651
0.519318 0.568512 0.809753
0.680328 0.581390 0.841187
0.839294 0.564819 0.832916
0.931915 0.590424 0.847229
0.171448 0.494659 0.667603
0.176056 0.503998 0.681335
0.182220 0.514221 0.695740
0.189545 0.525085 0.710358
0.282806 0.565704 0.745422
0.469086 0.615448 0.796478
0.657501 0.666382 0.841492
0.830017 0.688934 0.865509
0.930908 0.667450 0.864410
0.162628 0.543976 0.681274
0.153015 0.543182 0.688934
0.135925 0.542511 0.689789
0.128387 0.547058 0.697327
0.120880 0.552429 0.707397
0.388275 0.654053 0.778107
0.606506 0.714417 0.832275
0.791809 0.781494 0.868225
0.941040 0.796173 0.900543
0.117401 0.583527 0.703308
0.114655 0.582092 0.707001
0.113586 0.582336 0.710693
0.115509 0.587341 0.718628
0.119385 0.595367 0.728851
0.294037 0.681122 0.792664
0.588531 0.796753 0.871735
0.844452 0.906647 0.928680
0.952637 0.914856 0.947784
