valentine-day-promo/public/LUT/W-9130-STD.cube
# Copyright: (C) Copyright 2010-2021 by IWLTBAP SAS
# Cannot be resold, shared or otherwise redistributed
# Website: https://luts.iwltbap.com
TITLE "IWLTBAP 9130 (Rec.709, sRGB, DCI-P3)"
LUT_3D_SIZE 5
0.000916 0.001160 0.000977
0.140930 0.016663 0.006256
0.274445 0.028656 0.016327
0.447327 0.046600 0.027771
0.677094 0.066803 0.048676
0.072571 0.170624 0.109833
0.201752 0.156250 0.008026
0.344513 0.145752 0.019135
0.558075 0.179901 0.034851
0.825500 0.218353 0.054504
0.118835 0.324127 0.200623
0.259094 0.356750 0.173737
0.447052 0.331970 0.106628
0.638062 0.330505 0.039795
0.902893 0.382446 0.135559
0.177979 0.498840 0.307037
0.232513 0.527313 0.295563
0.529114 0.601471 0.285248
0.740845 0.607178 0.271271
0.945862 0.609344 0.453857
0.300903 0.714478 0.491547
0.388123 0.755341 0.485413
0.622925 0.813324 0.479309
0.835663 0.889557 0.529877
0.974762 0.880310 0.692322
0.049744 0.063934 0.154083
0.180786 0.013824 0.150024
0.309052 0.025024 0.138550
0.503174 0.042206 0.160492
0.746460 0.064270 0.198700
0.081635 0.182434 0.208679
0.227081 0.228882 0.218872
0.388458 0.190887 0.164398
0.578674 0.205994 0.153809
0.851410 0.255646 0.200195
0.120728 0.332397 0.278687
0.224213 0.404236 0.276123
0.474121 0.390686 0.195251
0.669495 0.368561 0.132690
0.915894 0.424927 0.219543
0.177673 0.501526 0.373047
0.229553 0.548737 0.392639
0.528351 0.626526 0.323730
0.750916 0.640289 0.309570
0.949860 0.630768 0.498383
0.306610 0.719818 0.528931
0.401093 0.766846 0.566620
0.630310 0.831177 0.534424
0.855927 0.905426 0.559418
0.980560 0.887878 0.737732
0.077972 0.122711 0.299133
0.209045 0.129761 0.350128
0.357544 0.031616 0.277191
0.518219 0.045380 0.283356
0.758942 0.068237 0.348145
0.092743 0.220093 0.339539
0.207184 0.280121 0.419006
0.446075 0.247711 0.368652
0.618805 0.235199 0.356018
0.849976 0.262451 0.398315
0.126709 0.359528 0.403961
0.177979 0.423157 0.459778
0.488953 0.489136 0.452881
0.693542 0.452515 0.422882
0.925018 0.490997 0.472198
0.189972 0.528717 0.494659
0.219421 0.556671 0.517090
0.491333 0.655823 0.522339
0.754730 0.710632 0.490662
0.954437 0.655762 0.578522
0.281586 0.686981 0.594330
0.321930 0.731628 0.668304
0.520935 0.806335 0.677155
0.816284 0.901794 0.669891
0.980255 0.903931 0.786163
0.094513 0.176819 0.440796
0.190125 0.212189 0.515808
0.403381 0.186218 0.486481
0.578369 0.064758 0.439087
0.787384 0.073944 0.495270
0.109955 0.268066 0.487091
0.171722 0.320068 0.557861
0.491150 0.333710 0.599060
0.679840 0.288788 0.550629
0.882416 0.303925 0.576752
0.128418 0.377563 0.515564
0.165924 0.419525 0.567017
0.443665 0.498169 0.655243
0.713806 0.469543 0.637451
0.924591 0.495850 0.660309
0.185974 0.521973 0.589630
0.216156 0.559814 0.629791
0.434753 0.654510 0.701630
0.746918 0.736145 0.705261
0.948395 0.679230 0.720306
0.275635 0.695892 0.717010
0.235992 0.691498 0.740936
0.413361 0.762146 0.770142
0.781281 0.891754 0.789703
0.972290 0.916077 0.867615
0.109161 0.226837 0.575867
0.178619 0.256958 0.630554
0.427551 0.259521 0.674225
0.645294 0.213867 0.631531
0.846344 0.195648 0.666656
0.125427 0.304565 0.619843
0.160217 0.349640 0.683899
0.441254 0.364777 0.765289
0.707214 0.339996 0.727264
0.905212 0.361145 0.753815
0.146942 0.398071 0.647400
0.174652 0.431427 0.693420
0.371063 0.491699 0.769714
0.736053 0.482483 0.820221
0.931427 0.514679 0.826111
0.171448 0.494659 0.667603
0.182220 0.514221 0.695740
0.282806 0.565704 0.745422
0.657501 0.666382 0.841492
0.930908 0.667450 0.864410
0.117401 0.583527 0.703308
0.113586 0.582336 0.710693
0.119385 0.595367 0.728851
0.588531 0.796753 0.871735
0.952637 0.914856 0.947784
